assets/ios/swift/Icons.xcassets/chevronUpDown.imageset/chevronUpDown.svg

<svg width="24" height="24" viewBox="0 0 24 24" fill="none" xmlns="http://www.w3.org/2000/svg">
<path d="M8.22495 8.3249C8.04162 8.14157 7.94995 7.8999 7.94995 7.5999C7.94995 7.2999 8.04162 7.05824 8.22495 6.8749L11.3 3.7999C11.4 3.6999 11.5083 3.62907 11.625 3.5874C11.7416 3.54574 11.8666 3.5249 12 3.5249C12.1333 3.5249 12.2625 3.54574 12.3875 3.5874C12.5125 3.62907 12.6166 3.6999 12.7 3.7999L15.8 6.8999C15.9833 7.08324 16.0708 7.32074 16.0625 7.6124C16.0541 7.90407 15.9583 8.14157 15.775 8.3249C15.5916 8.50824 15.35 8.5999 15.05 8.5999C14.75 8.5999 14.5083 8.50824 14.325 8.3249L12 5.9999L9.64995 8.3499C9.46662 8.53324 9.22912 8.62074 8.93745 8.6124C8.64578 8.60407 8.40828 8.50824 8.22495 8.3249ZM12 20.5749C11.8666 20.5749 11.7416 20.5499 11.625 20.4999C11.5083 20.4499 11.4 20.3832 11.3 20.2999L8.22495 17.2249C8.04162 17.0416 7.94995 16.7999 7.94995 16.4999C7.94995 16.1999 8.04162 15.9582 8.22495 15.7749C8.40828 15.5916 8.64995 15.4999 8.94995 15.4999C9.24995 15.4999 9.49162 15.5916 9.67495 15.7749L12 18.0999L14.35 15.7499C14.5333 15.5666 14.7708 15.4791 15.0625 15.4874C15.3541 15.4957 15.5916 15.5916 15.775 15.7749C15.9583 15.9582 16.05 16.1999 16.05 16.4999C16.05 16.7999 15.9583 17.0416 15.775 17.2249L12.7 20.2999C12.6166 20.3832 12.5125 20.4499 12.3875 20.4999C12.2625 20.5499 12.1333 20.5749 12 20.5749Z" fill="black"/>
</svg>

<svg xmlns="http://www.w3.org/2000/svg" width="24" height="24" fill="black" viewBox="0 0 24 24">
  <path d="M8.225 8.325C8.042 8.142 7.95 7.9 7.95 7.6s.092-.542.275-.725L11.3 3.8c.1-.1.208-.17.325-.213a1.218 1.218 0 0 1 .762 0 .68.68 0 0 1 .313.213l3.1 3.1c.183.183.27.42.262.712-.008.292-.104.53-.287.713-.183.183-.425.275-.725.275s-.542-.092-.725-.275L12 6 9.65 8.35c-.183.183-.42.27-.713.262a1.007 1.007 0 0 1-.712-.287ZM12 20.575a.941.941 0 0 1-.375-.075 1.315 1.315 0 0 1-.325-.2l-3.075-3.075c-.183-.183-.275-.425-.275-.725s.092-.542.275-.725c.183-.183.425-.275.725-.275s.542.092.725.275L12 18.1l2.35-2.35c.183-.183.42-.27.713-.262.291.008.529.104.712.287.183.183.275.425.275.725s-.092.542-.275.725L12.7 20.3a1.034 1.034 0 0 1-.7.275Z"/>
</svg>
